src/svg/acciones/accion-scout-avatar.svg

<?xml version="1.0" encoding="UTF-8" standalone="no"?>
<!-- Generado por Andres Lacquaniti  -->

<svg
   xmlns:dc="http://purl.org/dc/elements/1.1/"
   xmlns:cc="http://creativecommons.org/ns#"
   xmlns:rdf="http://www.w3.org/1999/02/22-rdf-syntax-ns#"
   xmlns:svg="http://www.w3.org/2000/svg"
   xmlns="http://www.w3.org/2000/svg"
   xmlns:sodipodi="http://sodipodi.sourceforge.net/DTD/sodipodi-0.dtd"
   xmlns:inkscape="http://www.inkscape.org/namespaces/inkscape"
   version="1.1"
   id="Layer_1"
   x="0px"
   y="0px"
   width="15px"
   height="15px"
   viewBox="0 0 15 15"
   style="enable-background:new 0 0 15 15;"
   xml:space="preserve"
   sodipodi:docname="scout-1.svg"
   inkscape:version="0.92.0 r15299"><metadata
     id="metadata9"><rdf:RDF><cc:Work
         rdf:about=""><dc:format>image/svg+xml</dc:format><dc:type
           rdf:resource="http://purl.org/dc/dcmitype/StillImage" /><dc:title></dc:title></cc:Work></rdf:RDF></metadata><defs
     id="defs7" /><sodipodi:namedview
     pagecolor="#ffffff"
     bordercolor="#666666"
     borderopacity="1"
     objecttolerance="10"
     gridtolerance="10"
     guidetolerance="10"
     inkscape:pageopacity="0"
     inkscape:pageshadow="2"
     inkscape:window-width="1920"
     inkscape:window-height="996"
     id="namedview5"
     showgrid="false"
     inkscape:zoom="22.250293"
     inkscape:cx="19.378839"
     inkscape:cy="2.0855828"
     inkscape:window-x="-8"
     inkscape:window-y="-8"
     inkscape:window-maximized="1"
     inkscape:current-layer="Layer_1" /><path
     style="display:inline;fill:#000000;stroke-width:0.08040246"
     d="m 6.9417029,0.22992985 v 0 c -0.037766,-0.001445 -0.071056,0.001432 -0.097547,0.008954 C 6.6592477,0.28703086 5.6974566,1.398721 5.3512112,1.9644015 5.1659622,2.2670643 4.9125202,2.8947986 4.8205938,3.278613 4.7702992,3.4888122 4.7792484,3.4942355 5.3367671,3.5882918 5.6488625,3.6409138 6.3089572,3.7125075 6.8037957,3.747409 7.2986161,3.782311 7.9386286,3.797882 8.2260777,3.781953 9.7347024,3.698547 10.297555,3.6486095 10.392542,3.5898847 c 0.08591,-0.052979 0.08663,-0.1439035 0.0036,-0.4960734 C 10.271369,2.5636192 10.153991,2.3237263 9.6972942,1.6658867 9.171456,0.90840649 8.6162638,0.29096375 8.4157298,0.24063336 8.3187204,0.21629121 8.1082523,0.25853166 7.9479181,0.33460022 7.6715661,0.46561685 7.6400291,0.46561685 7.3430221,0.33102001 7.2096785,0.27088126 7.0548926,0.23311553 6.9413094,0.22971478 Z M 8.662818,1.496424 c 0.028996,0 0.1619808,0.2442244 0.2955388,0.5427168 C 9.0920584,2.3376332 9.2963155,2.6813549 9.4123333,2.802957 9.6023075,3.0020772 9.6077306,3.0238417 9.4674604,3.0217118 9.2191552,3.0181377 9.0405827,2.8769133 8.8767043,2.5556362 8.720272,2.249 8.5682962,1.496424 8.662818,1.496424 Z M 6.5750173,1.571061 c 0.00895,0 0.016111,0.00895 0.021121,0.025594 C 6.6523388,1.8294597 6.380945,2.6256364 6.1751306,2.8314327 6.0691715,2.9373918 5.9016604,3.0241095 5.8029504,3.0241095 c -0.1786266,0 -0.1786266,-7.151e-4 0.028996,-0.2210996 C 5.9464965,2.6814791 6.157591,2.3286295 6.3011724,2.0190759 6.4375587,1.7250044 6.5326349,1.5703261 6.5752153,1.5710598 Z M 1.8721109,3.7577855 C 1.5557201,3.7563534 1.304748,3.7889288 1.1701517,3.8583748 0.86011494,4.0187448 0.74898341,4.2095065 0.74898341,4.5812214 c 0,0.2250551 0.0519055,0.3183419 0.26020759,0.4674896 0.5683115,0.406957 1.3404864,0.6374174 2.5194929,0.752057 0.5372935,0.052263 0.5737347,0.06873 0.6595399,0.2960045 0.083049,0.2200974 0.070519,0.2574871 -0.1451564,0.4390668 -0.1297639,0.1091808 -0.2773365,0.3371352 -0.3280606,0.5064544 -0.078574,0.2619618 -0.069805,0.3531003 0.058706,0.6119654 0.2096445,0.4221171 0.4941403,0.609299 0.9258866,0.609299 0.348089,0 0.3619962,0.010735 0.5750593,0.417088 0.4439531,0.8479922 1.1540382,1.4828329 1.8663785,1.6689769 0.3344514,0.08734 0.8761654,0.02041 1.2735468,-0.157686 0.4583792,-0.2054202 1.1401131,-0.9223789 1.40297,-1.4753514 0.216965,-0.4564817 0.219381,-0.4583072 0.581968,-0.4623168 0.604252,-0.00716 0.962633,-0.3989026 0.962633,-1.0533949 0,-0.2715013 -0.05047,-0.3839934 -0.27041,-0.6039653 -0.26964,-0.2696223 -0.269998,-0.2708213 -0.129406,-0.5020333 0.124931,-0.2055102 0.199084,-0.2373511 0.652344,-0.2796811 1.347772,-0.1260052 2.498642,-0.5143298 2.824286,-0.9532177 0.136207,-0.1836382 0.144977,-0.2501666 0.06497,-0.49278 -0.171825,-0.520827 -0.313742,-0.5823798 -1.321443,-0.573341 -0.753918,0.00716 -1.067839,0.053516 -1.98134,0.2947695 C 9.4426891,4.5551076 8.2045637,4.6798061 6.6201038,4.5518322 5.5167179,4.4626974 5.1045884,4.3873455 3.7640842,4.0306294 3.1086252,3.8561196 2.399453,3.7600227 1.8721289,3.757696 Z m 3.6860959,2.2208036 v 0 c 0.056559,-7.103e-4 0.1174138,7.103e-4 0.1795037,0.00537 0.4389413,0.028281 0.4467452,0.033111 0.4142592,0.2542474 -0.0494,0.3371354 0.1059592,0.5654836 0.3845839,0.5654836 0.2805047,0 0.4338586,-0.2287958 0.3834744,-0.5720699 L 6.8858415,5.9996745 h 0.6556382 0.6554592 l -0.034006,0.231946 c -0.049757,0.3394083 0.1032742,0.5720699 0.3764221,0.5720699 0.301875,0 0.4342521,-0.1754044 0.3938372,-0.5215072 L 8.9002603,5.9996745 H 9.32644 c 0.2343266,0 0.4531889,-7.104e-4 0.4863545,-0.00147 0.033112,-7.104e-4 0.071237,0.176837 0.084302,0.3943209 0.021121,0.3475342 0.048863,0.4015876 0.2287955,0.4467631 0.112939,0.028282 0.253889,0.010735 0.314243,-0.039557 0.08484,-0.07034 0.155717,-0.044747 0.313903,0.113476 0.260924,0.2595278 0.26053,0.4858893 0,0.7464011 C 10.54919,7.8644586 10.42204,7.8762897 9.9548903,7.7342476 9.8185041,7.6929004 9.7580073,7.7666437 9.5577418,8.2175951 9.2332606,8.9483346 8.8568922,9.4144642 8.3625373,9.6979755 h -0.00142 C 7.6032784,10.132604 6.8898999,9.9775848 6.1910192,9.2267092 5.8387059,8.8481931 5.3304618,7.9513735 5.3303186,7.7078651 c 0,-0.1304799 -0.083228,-0.1236778 -0.27671,0.022552 C 4.9676956,7.7953881 4.7959246,7.8485469 4.6717094,7.8485469 4.1830818,7.8485642 3.9408442,7.2216176 4.3001555,6.886863 4.5037325,6.697211 4.5549937,6.6892996 4.7579083,6.815985 5.0157712,6.9770713 5.167729,6.846056 5.1707718,6.4640481 c 7.15e-4,-0.1893296 0.027743,-0.3812728 0.060318,-0.4266633 0.0247,-0.034366 0.1571483,-0.056559 0.326933,-0.058528 z m 0.8390434,2.0962835 c -0.039557,0.00142 -0.059781,0.024161 -0.074995,0.063898 -0.064435,0.1678871 0.1987266,0.4177139 0.5848141,0.5552811 0.1728993,0.061571 0.4692616,0.1138347 0.6586093,0.1156242 0.5374723,0.00537 1.2234664,-0.3376544 1.2234664,-0.6119837 0,-0.1567905 -0.1496312,-0.1335226 -0.59643,0.093071 C 7.6773294,8.5522423 7.3775661,8.5439734 6.823985,8.2528172 6.5832688,8.126096 6.4633493,8.0718996 6.3973219,8.0749067 Z M 5.0547591,8.7326944 c -0.1125806,0 -0.4699594,0.3694597 -0.5975217,0.617783 -0.049757,0.096652 -0.090388,0.2830457 -0.090388,0.4142596 0,0.351042 1.0106359,1.27215 1.8646426,1.699601 0.486551,0.243526 0.5932438,0.323657 0.431227,0.323657 -0.3282574,0 -1.049207,0.374883 -1.3249145,0.688912 -0.1354913,0.154284 -0.3190756,0.423048 -0.4079773,0.597361 -0.1682454,0.32994 -0.4021781,1.134599 -0.4021781,1.383961 0,0.07912 0.022731,0.143903 0.050116,0.143903 0.027385,0 0.4521327,-0.208051 0.9437852,-0.462316 0.6757736,-0.349521 1.0279615,-0.593656 1.4433129,-1.000326 l 0.5493215,-0.53785 0.4813073,0.476763 c 0.264718,0.262247 0.7233657,0.620234 1.0193166,0.795549 0.6255507,0.370588 1.4275804,0.736556 1.4860364,0.678064 0.06229,-0.0621 -0.168961,-0.977648 -0.351132,-1.390547 C 9.8499326,12.482097 8.9762556,11.799594 8.3869849,11.784434 8.2316265,11.780834 8.2754774,11.743087 8.5788921,11.619947 9.4080912,11.283545 10.65649,10.246778 10.73655,9.8280079 10.787203,9.5631289 10.631307,9.2256357 10.325441,8.9377572 10.107795,8.7329809 10.058736,8.7164961 9.9669344,8.8171212 9.9084067,8.8811981 9.8160506,9.0906456 9.7616751,9.2824273 9.6311952,9.7424355 9.3170601,10.065198 8.3500783,10.732023 L 7.5491946,11.284315 6.7147147,10.715073 C 5.7351149,10.046888 5.5593524,9.8570393 5.3246319,9.2133395 5.2283383,8.9490151 5.1068078,8.7328019 5.0546877,8.7328019 Z m 2.4985876,2.8140836 c 0.3631775,0 0.4809853,0.462979 0.1727204,0.67887 -0.098263,0.06873 -0.2068168,0.12511 -0.2412174,0.12511 -0.1036329,0 -0.384119,-0.313902 -0.384119,-0.429813 0,-0.154464 0.2659175,-0.374221 0.4525806,-0.374221 z"
     id="path4574-9"
     inkscape:connector-curvature="0" /></svg>

<svg width="15px" height="15px" enable-background="new 0 0 15 15" version="1.1" viewBox="0 0 15 15" xmlns="http://www.w3.org/2000/svg">
 <path d="m6.9417 0.22993c-0.037766-0.001445-0.071056 0.001432-0.097547 0.008954-0.18491 0.048147-1.1467 1.1598-1.4929 1.7255-0.18525 0.30266-0.43869 0.9304-0.53062 1.3142-0.050295 0.2102-0.041345 0.21562 0.51617 0.30968 0.3121 0.052622 0.97219 0.12422 1.467 0.15912 0.49482 0.034902 1.1348 0.050473 1.4223 0.034544 1.5086-0.083406 2.0715-0.13334 2.1665-0.19207 0.08591-0.052979 0.08663-0.1439 0.0036-0.49607-0.12477-0.53019-0.24215-0.77008-0.69885-1.4279-0.52584-0.75748-1.081-1.3749-1.2816-1.4253-0.097009-0.024342-0.30748 0.017898-0.46781 0.093967-0.27635 0.13102-0.30789 0.13102-0.6049-0.0035802-0.13334-0.060139-0.28813-0.097904-0.40171-0.10131zm1.7211 1.2665c0.028996 0 0.16198 0.24422 0.29554 0.54272 0.1337 0.29849 0.33796 0.64221 0.45398 0.76382 0.18997 0.19912 0.1954 0.22088 0.055127 0.21875-0.24831-0.0035741-0.42688-0.1448-0.59076-0.46608-0.15643-0.30664-0.30841-1.0592-0.21389-1.0592zm-2.0878 0.074637c0.00895 0 0.016111 0.00895 0.021121 0.025594 0.0562 0.2328-0.21519 1.029-0.42101 1.2348-0.10596 0.10596-0.27347 0.19268-0.37218 0.19268-0.17863 0-0.17863-7.151e-4 0.028996-0.2211 0.11455-0.12153 0.32564-0.47438 0.46923-0.78393 0.13639-0.29407 0.23146-0.44875 0.27404-0.44802zm-4.7029 2.1867c-0.31639-0.0014321-0.56736 0.031143-0.70196 0.10059-0.31004 0.16037-0.42117 0.35113-0.42117 0.72285 0 0.22506 0.051906 0.31834 0.26021 0.46749 0.56831 0.40696 1.3405 0.63742 2.5195 0.75206 0.53729 0.052263 0.57373 0.06873 0.65954 0.296 0.083049 0.2201 0.070519 0.25749-0.14516 0.43907-0.12976 0.10918-0.27734 0.33714-0.32806 0.50645-0.078574 0.26196-0.069805 0.3531 0.058706 0.61197 0.20964 0.42212 0.49414 0.6093 0.92589 0.6093 0.34809 0 0.362 0.010735 0.57506 0.41709 0.44395 0.84799 1.154 1.4828 1.8664 1.669 0.33445 0.08734 0.87617 0.02041 1.2735-0.15769 0.45838-0.20542 1.1401-0.92238 1.403-1.4754 0.21696-0.45648 0.21938-0.45831 0.58197-0.46232 0.60425-0.00716 0.96263-0.3989 0.96263-1.0534 0-0.2715-0.05047-0.38399-0.27041-0.60397-0.26964-0.26962-0.27-0.27082-0.12941-0.50203 0.12493-0.20551 0.19908-0.23735 0.65234-0.27968 1.3478-0.12601 2.4986-0.51433 2.8243-0.95322 0.13621-0.18364 0.14498-0.25017 0.06497-0.49278-0.17182-0.52083-0.31374-0.58238-1.3214-0.57334-0.75392 0.00716-1.0678 0.053516-1.9813 0.29477-1.7585 0.46448-2.9966 0.58918-4.5811 0.46121-1.1034-0.089135-1.5155-0.16449-2.856-0.5212-0.65546-0.17451-1.3646-0.27061-1.892-0.27293zm3.6861 2.2208c0.056559-7.103e-4 0.11741 7.103e-4 0.1795 0.00537 0.43894 0.028281 0.44675 0.033111 0.41426 0.25425-0.0494 0.33714 0.10596 0.56548 0.38458 0.56548 0.2805 0 0.43386-0.2288 0.38347-0.57207l-0.034186-0.23195h1.3111l-0.034006 0.23195c-0.049757 0.33941 0.10327 0.57207 0.37642 0.57207 0.30188 0 0.43425-0.1754 0.39384-0.52151l-0.032932-0.28251h0.42618c0.23433 0 0.45319-7.104e-4 0.48635-0.00147 0.033112-7.104e-4 0.071237 0.17684 0.084302 0.39432 0.021121 0.34753 0.048863 0.40159 0.2288 0.44676 0.11294 0.028282 0.25389 0.010735 0.31424-0.039557 0.08484-0.07034 0.15572-0.044747 0.3139 0.11348 0.26092 0.25953 0.26053 0.48589 0 0.7464-0.20485 0.20485-0.332 0.21668-0.79915 0.074639-0.13639-0.041347-0.19688 0.032396-0.39715 0.48335-0.32448 0.73074-0.70085 1.1969-1.1952 1.4804h-0.00142c-0.75784 0.43463-1.4712 0.27961-2.1701-0.47127-0.35231-0.37852-0.86056-1.2753-0.8607-1.5188 0-0.13048-0.083228-0.12368-0.27671 0.022552-0.085913 0.064971-0.25768 0.11813-0.3819 0.11813-0.48863 1.73e-5 -0.73087-0.62693-0.37155-0.96168 0.20358-0.18965 0.25484-0.19756 0.45775-0.070878 0.25786 0.16109 0.40982 0.030071 0.41286-0.35194 7.15e-4 -0.18933 0.027743-0.38127 0.060318-0.42666 0.0247-0.034366 0.15715-0.056559 0.32693-0.058528zm0.83904 2.0963c-0.039557 0.00142-0.059781 0.024161-0.074995 0.063898-0.064435 0.16789 0.19873 0.41771 0.58481 0.55528 0.1729 0.061571 0.46926 0.11383 0.65861 0.11562 0.53747 0.00537 1.2235-0.33765 1.2235-0.61198 0-0.15679-0.14963-0.13352-0.59643 0.093071-0.51539 0.26148-0.81515 0.25321-1.3687-0.037946-0.24072-0.12672-0.36064-0.18092-0.42666-0.17791zm-1.3425 0.65782c-0.11258 0-0.46996 0.36946-0.59752 0.61778-0.049757 0.096652-0.090388 0.28305-0.090388 0.41426 0 0.35104 1.0106 1.2722 1.8646 1.6996 0.48655 0.24353 0.59324 0.32366 0.43123 0.32366-0.32826 0-1.0492 0.37488-1.3249 0.68891-0.13549 0.15428-0.31908 0.42305-0.40798 0.59736-0.16825 0.32994-0.40218 1.1346-0.40218 1.384 0 0.07912 0.022731 0.1439 0.050116 0.1439s0.45213-0.20805 0.94379-0.46232c0.67577-0.34952 1.028-0.59366 1.4433-1.0003l0.54932-0.53785 0.48131 0.47676c0.26472 0.26225 0.72337 0.62023 1.0193 0.79555 0.62555 0.37059 1.4276 0.73656 1.486 0.67806 0.06229-0.0621-0.16896-0.97765-0.35113-1.3905-0.29978-0.67937-1.1735-1.3619-1.7627-1.377-0.15536-0.0036-0.11151-0.041347 0.19191-0.16449 0.8292-0.3364 2.0776-1.3732 2.1577-1.7919 0.050653-0.26488-0.10524-0.60237-0.41111-0.89025-0.21765-0.20478-0.2667-0.22126-0.35851-0.12064-0.058528 0.064077-0.15088 0.27352-0.20526 0.46531-0.13048 0.46001-0.44462 0.78277-1.4116 1.4496l-0.80088 0.55229-0.83448-0.56924c-0.9796-0.66818-1.1554-0.85803-1.3901-1.5017-0.096294-0.26432-0.21782-0.48054-0.26994-0.48054zm2.4986 2.8141c0.36318 0 0.48099 0.46298 0.17272 0.67887-0.098263 0.06873-0.20682 0.12511-0.24122 0.12511-0.10363 0-0.38412-0.3139-0.38412-0.42981 0-0.15446 0.26592-0.37422 0.45258-0.37422z" stroke-width=".080402"/>
</svg>
